X:1
T:Title
%%score { 1 | 2 }
L:1/8
M:4/4
K:G
V:1 treble nm="Grand Piano"
V:2 bass 
V:1
 z4 z2[Q:1/4=94] [B,D]2 | [DGB]2 [FGd]2 [EGc]3 [DGB] | [CGA]2 [CFB]2 [B,G]4 | [DB]4 [^DA]2 [DG]2 | %4
[M:3/4] [^DF]3 E E2 |[M:1/4] [DE]2 |[M:4/4] [Cc]2 [Ce]2 [=Fd]2 [Ec]2 | B2 c2 A2 c2 | %8
 c2 B2 [FB]3 [FA] |[M:3/4] G6 |] %10
V:2
 z4 z2 G,2 | G,2 B,,2 C,3 D, | E,2 D,2 G,4 | [B,,G,]4 [B,,G,]2 [B,,G,]2 | %4
[M:3/4] [C,G,]3 [C,G,] [C,G,]2 |[M:1/4] [B,,^G,]2 |[M:4/4] [A,,A,]2 [A,,A,]2 [D,B,]2 [D,A,]2 | %7
 [=F,^G,D]2 [E,G,D]2 [A,C]2 [=G,A,E]2 | [F,A,D]2 [G,D]2 [D,D]3 [D,C] |[M:3/4] [G,B,]6 |] %10

